svg/emoji_u1f58d.svg

<?xml version="1.0" encoding="UTF-8"?>
<svg width="128" height="128" enable-background="new 0 0 128 128" xmlns="http://www.w3.org/2000/svg"><linearGradient id="d" x1="28.49" x2="28.49" y1="149.83" y2="111.84" gradientUnits="userSpaceOnUse"><stop stop-color="#D32F2F" offset="0"/><stop stop-color="#D02D2D" offset=".4097"/><stop stop-color="#C62626" offset=".7309"/><stop stop-color="#B71C1C" offset="1"/></linearGradient><path d="m33.35 75.02-11.21 11.22-17.85 30.25c-0.5 0.9-0.34 2.03 0.39 2.76l4.08 4.07c0.73 0.73 1.86 0.89 2.76 0.39l30.25-17.85 11.22-11.22-19.64-19.62z" fill="url(#d)"/><g opacity=".2"><path d="m33.35 79.26 15.38 15.38-8.83 8.83-29.4 17.35-3.32-3.32 17.35-29.42 8.82-8.82m0-4.24-11.21 11.22-17.85 30.25c-0.5 0.9-0.34 2.03 0.39 2.76l4.08 4.08c0.45 0.45 1.04 0.68 1.64 0.68 0.38 0 0.77-0.1 1.12-0.29l30.25-17.85 11.22-11.22-19.64-19.63z" fill="#424242"/></g><linearGradient id="c" x1="67.435" x2="67.435" y1="10.333" y2="108.53" gradientUnits="userSpaceOnUse"><stop stop-color="#EF5350" offset="0"/><stop stop-color="#E53935" offset="1"/></linearGradient><path d="m19.68 83c-1.55 1.55-1.55 4.07 0 5.63l19.69 19.69c1.55 1.55 4.07 1.55 5.63 0l71.35-71.35-25.31-25.32" fill="url(#c)"/><rect transform="matrix(.7071 -.7071 .7071 .7071 -53.949 52.634)" x="34.57" y="73.54" width="3.98" height="35.81" fill="#212121"/><linearGradient id="b" x1="108.92" x2="108.92" y1="4.6667" y2="27.241" gradientUnits="userSpaceOnUse"><stop stop-color="#D32F2F" offset="0"/><stop stop-color="#B71C1C" offset="1"/></linearGradient><path d="m93.85 8.83 25.32 25.32 4.25-4.25c0.78-0.78 0.78-2.04 0-2.81l-22.51-22.51c-0.78-0.78-2.04-0.78-2.81 0" fill="url(#b)"/><rect transform="matrix(.7071 -.7071 .7071 .7071 14.592 81.025)" x="103.11" y="5" width="3.98" height="35.81" fill="#212121"/><linearGradient id="a" x1="78.104" x2="78.104" y1="31" y2="58.297" gradientUnits="userSpaceOnUse"><stop stop-color="#D32F2F" offset="0"/><stop stop-color="#B71C1C" offset="1"/></linearGradient><path d="m85.87 57.66c-11.43 11.43-24.17 17.21-28.46 12.93-4.29-4.29 1.5-17.03 12.93-28.45s24.17-17.21 28.45-12.93c4.29 4.28-1.5 17.02-12.92 28.45z" fill="url(#a)"/><g opacity=".2"><path d="m99.51 7.42 21.08 21.08-77.7 77.7c-0.25 0.25-0.54 0.29-0.69 0.29s-0.44-0.04-0.69-0.29l-19.71-19.7c-0.38-0.38-0.38-1 0-1.38l77.71-77.7m0-3.42c-0.51 0-1.02 0.19-1.41 0.58l-78.42 78.42c-1.55 1.55-1.55 4.07 0 5.63l19.69 19.69c0.78 0.78 1.79 1.17 2.81 1.17s2.04-0.39 2.81-1.17l78.42-78.42c0.78-0.78 0.78-2.04 0-2.81l-22.5-22.51c-0.39-0.39-0.9-0.58-1.4-0.58z" fill="#424242"/></g></svg>

<svg width="128" height="128" style="enable-background:new 0 0 128 128;" xmlns="http://www.w3.org/2000/svg" xmlns:xlink="http://www.w3.org/1999/xlink">
  <linearGradient id="SVGID_1_" gradientUnits="userSpaceOnUse" x1="28.49" x2="28.49" y1="149.8333" y2="111.8384">
    <stop offset="0" style="stop-color:#D32F2F"/>
    <stop offset="0.4097" style="stop-color:#D02D2D"/>
    <stop offset="0.7309" style="stop-color:#C62626"/>
    <stop offset="1" style="stop-color:#B71C1C"/>
  </linearGradient>
  <path d="M33.35,75.02L22.14,86.24L4.29,116.49c-0.5,0.9-0.34,2.03,0.39,2.76l4.08,4.07 c0.73,0.73,1.86,0.89,2.76,0.39l30.25-17.85l11.22-11.22L33.35,75.02z" style="fill:url(#SVGID_1_);"/>
  <g style="opacity:0.2;">
    <path d="M33.35,79.26l15.38,15.38l-8.83,8.83L10.5,120.82l-3.32-3.32l17.35-29.42L33.35,79.26 M33.35,75.02 L22.14,86.24L4.29,116.49c-0.5,0.9-0.34,2.03,0.39,2.76l4.08,4.08c0.45,0.45,1.04,0.68,1.64,0.68c0.38,0,0.77-0.1,1.12-0.29 l30.25-17.85l11.22-11.22L33.35,75.02L33.35,75.02z" style="fill:#424242;"/>
  </g>
  <linearGradient id="SVGID_2_" gradientUnits="userSpaceOnUse" x1="67.4353" x2="67.4353" y1="10.3333" y2="108.5272">
    <stop offset="0" style="stop-color:#EF5350"/>
    <stop offset="1" style="stop-color:#E53935"/>
  </linearGradient>
  <path d="M19.68,83c-1.55,1.55-1.55,4.07,0,5.63l19.69,19.69c1.55,1.55,4.07,1.55,5.63,0l71.35-71.35 L91.04,11.65" style="fill:url(#SVGID_2_);"/>
  <rect height="35.81" style="fill:#212121;" transform="matrix(0.7071 -0.7071 0.7071 0.7071 -53.9487 52.6344)" width="3.98" x="34.57" y="73.54"/>
  <linearGradient id="SVGID_3_" gradientUnits="userSpaceOnUse" x1="108.9243" x2="108.9243" y1="4.6667" y2="27.2412">
    <stop offset="0" style="stop-color:#D32F2F"/>
    <stop offset="1" style="stop-color:#B71C1C"/>
  </linearGradient>
  <path d="M93.85,8.83l25.32,25.32l4.25-4.25c0.78-0.78,0.78-2.04,0-2.81L100.91,4.58 c-0.78-0.78-2.04-0.78-2.81,0" style="fill:url(#SVGID_3_);"/>
  <rect height="35.81" style="fill:#212121;" transform="matrix(0.7071 -0.7071 0.7071 0.7071 14.5916 81.0247)" width="3.98" x="103.11" y="5"/>
  <linearGradient id="SVGID_4_" gradientUnits="userSpaceOnUse" x1="78.1045" x2="78.1045" y1="31" y2="58.2972">
    <stop offset="0" style="stop-color:#D32F2F"/>
    <stop offset="1" style="stop-color:#B71C1C"/>
  </linearGradient>
  <path d="M85.87,57.66C74.44,69.09,61.7,74.87,57.41,70.59c-4.29-4.29,1.5-17.03,12.93-28.45 s24.17-17.21,28.45-12.93C103.08,33.49,97.29,46.23,85.87,57.66z" style="fill:url(#SVGID_4_);"/>
  <g style="opacity:0.2;">
    <path d="M99.51,7.42l21.08,21.08l-77.7,77.7c-0.25,0.25-0.54,0.29-0.69,0.29c-0.15,0-0.44-0.04-0.69-0.29 L21.8,86.5c-0.38-0.38-0.38-1,0-1.38L99.51,7.42 M99.51,4C99,4,98.49,4.19,98.1,4.58L19.68,83c-1.55,1.55-1.55,4.07,0,5.63 l19.69,19.69c0.78,0.78,1.79,1.17,2.81,1.17c1.02,0,2.04-0.39,2.81-1.17l78.42-78.42c0.78-0.78,0.78-2.04,0-2.81L100.91,4.58 C100.52,4.19,100.01,4,99.51,4L99.51,4z" style="fill:#424242;"/>
  </g>
</svg>
